!!!OTL: IS DENN MEI VATER A LEIERSMANN
!!!ARE: Europa, Mitteleuropa, Deutschland, Schwaben
!!!SCT: E1007
!!!YEM: Copyright 1995, estate of Helmut Schaffrath.
**kern
*ICvox
*Ivox
*M3/8
*k[f#]
*G:
=1
{8b
16b
16cc
8b
=2
8a
8b
8cc
=3
8dd
16dd
16ee
8dd}
=4
{8b
16b
16cc
8b
=5
8a
8b
8cc
=6
4dd
8r}
=7
{8b
16b
16cc
8b
=8
8a
8b
8cc
=9
8dd
16dd
16ee
8dd}
=10
{8b
16b
16cc
8b
=11
8a
8b
8cc
=12
4dd
8r}
=13
{8b
16dd
16b
8g
=14
8a
16cc
16a
8f#
=15
8g
8b
8d}
=16
{8b
16dd
16b
8g
=17
8a
16cc
16a
8f#
=18
4g
8r}
=19
{8b
16dd
16b
8g
=20
8a
16cc
16a
8f#
=21
8g
8b
8d}
=22
{8b
16dd
16b
8g
=23
8a
16cc
16a
8f#
=24
4g
8r}
==
!!!AGN: Tanz - Lied
!!!ONB: ESAC (Essen Associative Code) Database: ERK3
!!!AMT: simple triple
!!!AIN: vox
!!!EED: Helmut Schaffrath
!!!EEV: 1.0
*-
